X: 13259
T: Five Barred Gate, The
R: jig
M: 6/8
K: Gmajor
|:D|GDG BGB|ded B3|cBc ded|BGB A2D|
GDG BGB|ded B2 g|fed cBA|G3 G2:|
|:B/c/|ded BGB|ded B2 G|ded BGB|cBc ABc|
ded BGB|ded B2 g|fed cBA|G3 G2:|

